outline/svg/plus-square-outline.svg

<svg xmlns="http://www.w3.org/2000/svg" viewBox="0 0 24 24"><g data-name="Layer 2"><g data-name="plus-square"><path d="M18 3H6a3 3 0 0 0-3 3v12a3 3 0 0 0 3 3h12a3 3 0 0 0 3-3V6a3 3 0 0 0-3-3zm1 15a1 1 0 0 1-1 1H6a1 1 0 0 1-1-1V6a1 1 0 0 1 1-1h12a1 1 0 0 1 1 1z"/><path d="M15 11h-2V9a1 1 0 0 0-2 0v2H9a1 1 0 0 0 0 2h2v2a1 1 0 0 0 2 0v-2h2a1 1 0 0 0 0-2z"/></g></g></svg>

<svg xmlns="http://www.w3.org/2000/svg" viewBox="0 0 24 24"><defs><style>.cls-1{fill:#fff;opacity:0;}.cls-2{fill:#231f20;}</style></defs><title>plus-square</title><g id="Layer_2" data-name="Layer 2"><g id="plus-square"><g id="plus-square-2" data-name="plus-square"><rect class="cls-1" width="24" height="24"/><path class="cls-2" d="M18,3H6A3,3,0,0,0,3,6V18a3,3,0,0,0,3,3H18a3,3,0,0,0,3-3V6A3,3,0,0,0,18,3Zm1,15a1,1,0,0,1-1,1H6a1,1,0,0,1-1-1V6A1,1,0,0,1,6,5H18a1,1,0,0,1,1,1Z"/><path class="cls-2" d="M15,11H13V9a1,1,0,0,0-2,0v2H9a1,1,0,0,0,0,2h2v2a1,1,0,0,0,2,0V13h2a1,1,0,0,0,0-2Z"/></g></g></g></svg>
